X:139
T:Stranger, The
T:Boys of Ballysimon, The
T:Boys from Ballysimon, The
T:Poll Halpenny
R:hornpipe
S:Recording of Elizabeth Crotty
H:See also "The Blackbird", #130
B:O'Neill's
B:The Dance Music of Willie Clancy
D:Martin O'Connor
Z:id:hn-hornpipe-139
M:C|
L:1/8
K:Dmix
dc | B2BG A2 (3ABc | dcAF G2FG | AFDD FAGF | DEFG A2dc |
B2BG A2 (3ABc | dcAF G2FG | AFDD FAGF | D2D2 D2 :|
FG | Adde f2 (3efe | dcAF A2FG | Adde f2 (3efe | d2d2 d2FG |
Adde f2 (3efe | dcAF G2FG | AFDD FAGF | D2D2 D2FG |
Adde f2 (3efe | dcAF A2FG | Adde f2ed | cdec defg |
afge (3fed ed | dcAF G2FG | AFDD FAGF | D2D2 D2 ||
P:version 2
K:D
|: (3dcA | B2 (3BAG A2 (3ABc | (3dcA (3AGF G2 (3EFG | AFDE FAGE | DEFG A2dc |
(3BcB (3BAG A2 (3ABc | dcAF G2 (3EFG | AFDE FAGE | D2D2 D2 :|
|: (3EFG | Adde f2ef | dcAG A2 (3EFG | Adde f2ef | gfef d2 (3efg |
af (3gfe fdec | dcAG A2 (3EFG | AFDE FAGE | D2D2 D2 :|

